!!!!SEGMENT: pl-wnifc--6730-n--026_sowinski-wojciech--chants-religieux-de-la-pologne-op-93-saint-kasimir-tu-dedaignas-de-la-terre.krn
!!!cenid: 18xx:4040
!!!COM: Sowiński, Wojciech
!!!COM-rismID: pe30008543
!!!CDT: ~1803-1880/03/05
!!!CNT:
!!!OTL: Chants religieux de la Pologne op. 93
!!!PDT: 1830
!!!AGN:
!!!SMS-siglum: PL-Wnifc
!!!SMS-shelfmark: 6730/n
!!!SMS-shelfwork: 026 W
!!!SMS-variant:
!!!SMS-altvar:
!!!NIFC-rismSourceID: 1001138221
!!!NIFC-rismChildID: 1001138249
!!!NIFC-islandoraID: nifc:213350
!!!URL-pdf-islandora: https://repozytorium.nifc.pl/islandora/object/nifc%3A213350/datastream/PDF/view
!!!URL-scan: https://polish.musicsources.pl/pl/lokalizacje/galeria/druki-muzyczne/16913 @EN{Scan on Polish Music Sources Website} @PL{Skany w portalu Dziedzictwo Muzyki Polskiej w otwartym dostępie}
!!!ONB-nifc: UWAGA: str. 102-105
!!!AIN: 1 calto 2 organ 2 soprn
!!!key: F
**kern	**kern	**dynam	**kern	**text	**dynam	**kern	**text	**dynam	**kern	**text	**dynam
*part5	*part4	*part4	*part3	*part3	*part3	*part2	*part2	*part2	*part1	*part1	*part1
*staff5	*staff4	*	*staff3	*staff3	*	*staff2	*staff2	*	*staff1	*staff1	*
*I"Organo	*I"ORGUE.	*	*I"CONTRALTO.	*	*	*I"2.e DESSUS.	*	*	*I"1.er DESSUS.	*	*
*	*I'org	*	*I'Contra-A	*	*	*I'S 2	*	*	*I'S 1	*	*
*Iorgan	*Iorgan	*	*Icalto	*	*	*Isoprn	*	*	*Isoprn	*	*
*ICklav	*ICklav	*	*ICvox	*	*	*ICvox	*	*	*ICvox	*	*
*clefF4	*clefG2	*	*clefG2	*	*	*clefG2	*	*	*clefG2	*	*
*k[b-]	*k[b-]	*	*k[b-]	*	*	*k[b-]	*	*	*k[b-]	*	*
*F:	*F:	*	*F:	*	*	*F:	*	*	*F:	*	*
*M4/4	*M4/4	*	*M4/4	*	*	*M4/4	*	*	*M4/4	*	*
*met(c)	*met(c)	*	*met(c)	*	*	*met(c)	*	*	*met(c)	*	*
=1	=1	=1	=1	=1	=1	=1	=1	=1	=1	=1	=1
!	!LO:TX:a:B:t=Non troppo lento.	!	!	!	!	!	!	!	!LO:TX:a:B:t=Non troppo lento.	!	!
2.F\	2.c/ 2.a 2.cc	f	1r	.	.	1r	.	.	1r	.	.
4G\	4c/ 4e 4b-	.	.	.	.	.	.	.	.	.	.
=2	=2	=2	=2	=2	=2	=2	=2	=2	=2	=2	=2
2A\	2c/ 2f 2a	.	1r	.	.	1r	.	.	1r	.	.
2G\	2c/ 2f 2a	.	.	.	.	.	.	.	.	.	.
=3	=3	=3	=3	=3	=3	=3	=3	=3	=3	=3	=3
2.C\ 2.B-	2.c/ 2.e 2.g	.	1r	.	.	1r	.	.	1r	.	.
4F\ 4A	4c/ 4f	.	.	.	.	.	.	.	.	.	.
=4	=4	=4	=4	=4	=4	=4	=4	=4	=4	=4	=4
2F\ 2A	2c/ 2f	.	1r	.	.	1r	.	.	1r	.	.
2r	2r	.	.	.	.	.	.	.	.	.	.
=5	=5	=5	=5	=5	=5	=5	=5	=5	=5	=5	=5
!	!	!	!	!	!LO:DY:a	!	!	!LO:DY:a	!	!	!LO:DY:a
4FF/	2.f/ 2.a 2.cc	p	2.f/	Tu	mf	2.a/	Tu	mf	2.cc\	Tu	mf
!LO:TUP:a	!	!	!	!	!	!	!	!	!	!	!
(12F\L	.	.	.	.	.	.	.	.	.	.	.
12E\	.	.	.	.	.	.	.	.	.	.	.
12F\J)	.	.	.	.	.	.	.	.	.	.	.
4FF/	.	.	.	.	.	.	.	.	.	.	.
4r	4f/ 4g 4b-	.	4f/	dé-	.	4g/	dé-	.	4b-\	dé-	.
=6	=6	=6	=6	=6	=6	=6	=6	=6	=6	=6	=6
4FF/	2f/ 2a	.	2f/	-dai-	.	2f/	-dai-	.	2a/	-dai-	.
!LO:TUP:a	!	!	!	!	!	!	!	!	!	!	!
(12F\L	.	.	.	.	.	.	.	.	.	.	.
12E\	.	.	.	.	.	.	.	.	.	.	.
12F\J)	.	.	.	.	.	.	.	.	.	.	.
4FF/	4f/ 4a	.	2f/	-gnas	.	2f/	-gnas	.	2a/	-gnas	.
4r	4c/	.	.	.	.	.	.	.	.	.	.
!LO:LB:g=original	!LO:LB:g=original	!	!LO:LB:g=original	!	!	!LO:LB:g=original	!	!	!LO:LB:g=original	!	!
=7	=7	=7	=7	=7	=7	=7	=7	=7	=7	=7	=7
4FF/	4f/ 4a	.	(4f/	de	.	(4f/	de	.	(4a/	de	.
!LO:TUP:a	!	!	!	!	!	!	!	!	!	!	!
(12F\L	4c/ 4g	.	4c/)	.	.	4e/)	.	.	4g/)	.	.
12E\	.	.	.	.	.	.	.	.	.	.	.
12F\J)	.	.	.	.	.	.	.	.	.	.	.
4FF/	4f/ 4a	.	2f/	la	.	(4f/	la	.	(4a/	la	.
4r	4g/ 4b-	.	.	.	.	4g/)	.	.	4b-/)	.	.
=8	=8	=8	=8	=8	=8	=8	=8	=8	=8	=8	=8
4FF/	2f/ 2b- 2dd	.	2f/	ter-	.	2b-/	ter-	.	2dd\	ter-	.
!LO:TUP:a	!	!	!	!	!	!	!	!	!	!	!
(12F\L	.	.	.	.	.	.	.	.	.	.	.
12E\	.	.	.	.	.	.	.	.	.	.	.
12F\J)	.	.	.	.	.	.	.	.	.	.	.
4FF/	4a/ 4cc	.	2f/	-re	.	2a/	-re	.	2cc\	-re	.
4r	4f/	.	.	.	.	.	.	.	.	.	.
=9	=9	=9	=9	=9	=9	=9	=9	=9	=9	=9	=9
4FF/	2f\ 2a 2ff	sf >	2f^>/	Ka-	.	2a^>/	Ka-	.	2ff^\	Ka-	.
!LO:TUP:a	!	!	!	!	!	!	!	!	!	!	!
(12F\L	.	.	.	.	.	.	.	.	.	.	.
12E\	.	.	.	.	.	.	.	.	.	.	.
12F\J)	.	.	.	.	.	.	.	.	.	.	.
4FF/	4cc\ 4ee	.	2f/	-si-	.	2cc\	-si-	.	2ee\	-si-	.
4r	4f/	]]	.	.	.	.	.	.	.	.	.
=10	=10	=10	=10	=10	=10	=10	=10	=10	=10	=10	=10
4FF/	2f^^</ 2b- 2dd	.	2f/	-mir	.	2b-/	-mir	.	2dd\	-mir	.
!LO:TUP:a	!	!	!	!	!	!	!	!	!	!	!
(12F\L	.	.	.	.	.	.	.	.	.	.	.
12E\	.	.	.	.	.	.	.	.	.	.	.
12F\J)	.	.	.	.	.	.	.	.	.	.	.
4FF/	4a/ 4cc	.	2f/	les	.	2a/	les	.	2cc\	les	.
4r	4f/	.	.	.	.	.	.	.	.	.	.
=11	=11	=11	=11	=11	=11	=11	=11	=11	=11	=11	=11
*^	*	*	*	*	*	*	*	*	*	*	*
4BB-^/	2BB-\	(4b-/ 4dd	.	2B-/	vains	.	(4b-/	vains	.	(4dd\	vains	.
!LO:TUP:a	!	!	!	!	!	!	!	!	!	!	!	!
(12F/L	.	4a/ 4cc	.	.	.	.	4a/)	.	.	4cc\)	.	.
12E/	.	.	.	.	.	.	.	.	.	.	.	.
12F/J)	.	.	.	.	.	.	.	.	.	.	.	.
4BB-/	2ryy	4g/ 4b-	.	(4B-/	hon-	.	(4g/	hon-	.	(4b-/	hon-	.
4BBn/	.	4f/) 4a	.	4Bn/)	.	.	4f/)	.	.	4a/)	.	.
!LO:LB:g=original	!LO:LB:g=original	!LO:LB:g=original	!	!LO:LB:g=original	!	!	!LO:LB:g=original	!	!	!LO:LB:g=original	!	!
*v	*v	*	*	*	*	*	*	*	*	*	*	*
=12	=12	=12	=12	=12	=12	=12	=12	=12	=12	=12	=12
4C/	2e/ 2g	.	2c/	-neurs	.	2e/	-neurs	.	2g/	-neurs	.
!LO:TUP:a	!	!	!	!	!	!	!	!	!	!	!
(12c\L	.	.	.	.	.	.	.	.	.	.	.
12Bn\	.	.	.	.	.	.	.	.	.	.	.
12c\J)	.	.	.	.	.	.	.	.	.	.	.
4C/	4e/ 4g	.	2r	.	.	2r	.	.	2r	.	.
4r	4r	.	.	.	.	.	.	.	.	.	.
=13!|:	=13!|:	=13!|:	=13!|:	=13!|:	=13!|:	=13!|:	=13!|:	=13!|:	=13!|:	=13!|:	=13!|:
!	!	!	!	!	!LO:DY:a	!	!	!LO:DY:a	!	!	!
4C/	2e/ 2g	.	2c/	Prin-	p	2e/	Prin-	p	2g/	Prin-	.
!LO:TUP:a	!	!	!	!	!	!	!	!	!	!	!
(12c\L	.	.	.	.	.	.	.	.	.	.	.
12Bn\	.	.	.	.	.	.	.	.	.	.	.
12c\J)	.	.	.	.	.	.	.	.	.	.	.
4C/	4e/ 4g	.	2c/	-ce	.	2e/	-ce	.	2g/	-ce	.
4r	4e/ 4g	.	.	.	.	.	.	.	.	.	.
=14	=14	=14	=14	=14	=14	=14	=14	=14	=14	=14	=14
4C/	2g/ 2b-	.	2c/	chas-	.	2g/	chas-	.	2b-/	chas-	.
!LO:TUP:a	!	!	!	!	!	!	!	!	!	!	!
(12c\L	.	.	.	.	.	.	.	.	.	.	.
12Bn\	.	.	.	.	.	.	.	.	.	.	.
12c\J)	.	.	.	.	.	.	.	.	.	.	.
4C/	4e/ 4g	.	2e/	-te	.	2e/	-te	.	2g/	-te	.
4r	4e/ 4g	.	.	.	.	.	.	.	.	.	.
=15	=15	=15	=15	=15	=15	=15	=15	=15	=15	=15	=15
4F\	4f/ 4a	.	4f/	sim-	.	(4f/	sim-	.	(4a/	sim-	.
!LO:TUP:a	!	!	!	!	!	!	!	!	!	!	!
(12c\L	4e/ 4g	.	4c/	.	.	4e/)	.	.	4g/)	.	.
12Bn\	.	.	.	.	.	.	.	.	.	.	.
12c\J)	.	.	.	.	.	.	.	.	.	.	.
4F\	4f/ 4a	.	2f/	-ple aus-	.	(4f/	-ple	.	(4a/	-ple	.
4r	4f/ 4g 4b-	.	.	.	.	4g/)	aus-	.	4b-/)	aus-	.
=16	=16	=16	=16	=16	=16	=16	=16	=16	=16	=16	=16
4F\	2f/ 2dd	.	2f/	-tè-	.	2b-/	-tè-	.	2dd^\	-tè-	.
!LO:TUP:a	!	!	!	!	!	!	!	!	!	!	!
(12c\L	.	.	.	.	.	.	.	.	.	.	.
12Bn\	.	.	.	.	.	.	.	.	.	.	.
12c\J)	.	.	.	.	.	.	.	.	.	.	.
4F\	4a/ 4cc	.	2f/	-re	.	2a/	-re	.	2cc\	-re	.
4r	4f/	.	.	.	.	.	.	.	.	.	.
!LO:LB:g=original	!LO:LB:g=original	!	!LO:LB:g=original	!	!	!LO:LB:g=original	!	!	!LO:LB:g=original	!	!
=17	=17	=17	=17	=17	=17	=17	=17	=17	=17	=17	=17
!	!	!	!	!	!LO:DY:a	!	!	!LO:DY:a	!	!	!LO:DY:a
4FF/	2f\ 2a 2ff	f	2f^>/	Dieu	f	2a^>/	Dieu	f	2ff^\	Dieu	f
!LO:TUP:a	!	!	!	!	!	!	!	!	!	!	!
12F\L	.	.	.	.	.	.	.	.	.	.	.
12E\	.	.	.	.	.	.	.	.	.	.	.
12F\J	.	.	.	.	.	.	.	.	.	.	.
4FF/	4cc\ 4ee	.	2f/	t`en-	.	2cc\	t`en-	.	2ee\	t`en-	.
4r	4f/	.	.	.	.	.	.	.	.	.	.
=18	=18	=18	=18	=18	=18	=18	=18	=18	=18	=18	=18
4FF/	2f^/ 2b- 2dd	.	2f/	-tou-	.	2b-/	-tou-	.	2dd\	-tou-	.
!LO:TUP:a	!	!	!	!	!	!	!	!	!	!	!
(12F\L	.	.	.	.	.	.	.	.	.	.	.
12E\	.	.	.	.	.	.	.	.	.	.	.
12F\J)	.	.	.	.	.	.	.	.	.	.	.
4FF/	4a/ 4cc	.	2f/	-re	.	2a/	-re	.	2cc\	-re	.
4r	4f/	.	.	.	.	.	.	.	.	.	.
=19	=19	=19	=19	=19	=19	=19	=19	=19	=19	=19	=19
2BB-/	(4b-/ 4dd	>	2B-^>/	de	.	(4b-/	de	.	(4dd\	de	.
.	4g/ 4b-	.	.	.	.	4g/)	.	.	4b-\)	.	.
4C/	4f/ 4a	.	2c/	splen-	.	(4f/	splen-	.	(4a/	splen-	.
8c\L	4e/) 4g	]]	.	.	.	4e/)	.	.	4g/)	.	.
8B-\J	.	.	.	.	.	.	.	.	.	.	.
=20	=20	=20	=20	=20	=20	=20	=20	=20	=20	=20	=20
4A\	4f/	.	2A/	-deurs	.	2f/	-deurs	.	2f/	-deurs	.
4F\	8cc/L	.	.	.	.	.	.	.	.	.	.
.	8a/J	.	.	.	.	.	.	.	.	.	.
4FF/ 4F	4f/	.	2r	.	.	2r	.	.	2r	.	.
4r	4r	.	.	.	.	.	.	.	.	.	.
=21:|!	=21:|!	=21:|!	=21:|!	=21:|!	=21:|!	=21:|!	=21:|!	=21:|!	=21:|!	=21:|!	=21:|!
8r	2.g\ 2.ee 2.gg	f	1r	.	.	1r	.	.	1r	.	.
8CC/L 8C	.	.	.	.	.	.	.	.	.	.	.
8EE/ 8E	.	.	.	.	.	.	.	.	.	.	.
8GG/J 8G	.	.	.	.	.	.	.	.	.	.	.
4BB-\ 4B-	.	.	.	.	.	.	.	.	.	.	.
4GG\ 4G	4cc\ 4ee 4bb-	sf	.	.	.	.	.	.	.	.	.
!LO:LB:g=original	!LO:LB:g=original	!	!	!LO:LB:g=original	!	!	!LO:LB:g=original	!	!	!LO:LB:g=original	!
=22	=22	=22	=22	=22	=22	=22	=22	=22	=22	=22	=22
8r	2.cc\ 2.ff 2.aa	.	1r	.	.	1r	.	.	1r	.	.
8FF\L 8F	.	.	.	.	.	.	.	.	.	.	.
8AA\ 8A	.	.	.	.	.	.	.	.	.	.	.
8C\J 8c	.	.	.	.	.	.	.	.	.	.	.
4E-X\ 4e-X	.	.	.	.	.	.	.	.	.	.	.
4C\ 4c	4ee-X\ 4ff 4aa	.	.	.	.	.	.	.	.	.	.
=23	=23	=23	=23	=23	=23	=23	=23	=23	=23	=23	=23
4BB-\ 4B-	4dd^<\ 4ff 4bb-	.	1r	.	.	1r	.	.	1r	.	.
4BB-\ 4B-	4dd^<\ 4ff 4ddd	.	.	.	.	.	.	.	.	.	.
2r	2r	.	.	.	.	.	.	.	.	.	.
=24	=24	=24	=24	=24	=24	=24	=24	=24	=24	=24	=24
4CC/ 4C	4cc\ 4ee 4ccc	.	1r	.	.	1r	.	.	1r	.	.
4r	8.c/L 8.cc	<	.	.	.	.	.	.	.	.	.
.	16c/Jk 16cc	.	.	.	.	.	.	.	.	.	.
2r	4c/ 4cc	.	.	.	.	.	.	.	.	.	.
.	4c/ 4cc	.	.	.	.	.	.	.	.	.	.
=25||	=25||	=25||	=25||	=25||	=25||	=25||	=25||	=25||	=25||	=25||	=25||
!	!	!	!	!	!LO:DY:a	!	!	!LO:DY:a	!LO:TX:a:t=2.e STROPHE.	!	!LO:DY:a
2FF/	4a/ 4cc	fp	2.f/	Sois	f	2.a/	Sois	f	2.cc\	Sois	f
.	4c/	.	.	.	.	.	.	.	.	.	.
2F\	4a/ 4cc	.	.	.	.	.	.	.	.	.	.
.	4g/ 4b-	.	4f/	tou-	.	4g/	tou-	.	4b-\	tou-	.
=26	=26	=26	=26	=26	=26	=26	=26	=26	=26	=26	=26
2FF/	4f/ 4a	.	2f/	-jours	.	2f/	-jours	.	2a/	-jours	.
.	4c/	.	.	.	.	.	.	.	.	.	.
2F\	4f/ 4a	.	2f/	no-	.	2f/	no-	.	2a/	no-	.
.	4c/	.	.	.	.	.	.	.	.	.	.
=27	=27	=27	=27	=27	=27	=27	=27	=27	=27	=27	=27
2FF/	4f/ 4a	.	2f/	-tre	.	(4f/	-tre	.	(4a/	-tre	.
.	4e/ 4g	.	.	.	.	4e/)	.	.	4g/)	.	.
4F\	4f/ 4a	.	2f/	mo-	.	(4f/	mo-	.	(4a/	mo-	.
4C\	4g/ 4b-	.	.	.	.	4g/)	.	.	4b-/)	.	.
!LO:PB:g=original	!LO:PB:g=original	!	!LO:PB:g=original	!	!	!LO:PB:g=original	!	!	!LO:PB:g=original	!	!
=28	=28	=28	=28	=28	=28	=28	=28	=28	=28	=28	=28
!	!	!	!	!	!	!	!	!LO:DY:a	!	!	!LO:DY:a
2F\	4b-\ 4dd	.	2f/	-dè-	.	2b-/	-dè-	>	2dd\	-dè-	>
.	4f/	.	.	.	.	.	.	.	.	.	.
2FF/	4a/ 4cc	.	2f/	-le	.	2a/	-le	]]	2cc\	-le	]]
.	4f/	.	.	.	.	.	.	.	.	.	.
=29	=29	=29	=29	=29	=29	=29	=29	=29	=29	=29	=29
2D\	4a\ 4ff	f	2d^>/	vers	.	2a/	vers	.	2ff\	vers	.
.	4f/	.	.	.	.	.	.	.	.	.	.
2A^\	4r	.	2a^>/	le	.	2cc\	le	.	2ee\	le	.
.	4cc\ 4ee	.	.	.	.	.	.	.	.	.	.
=30	=30	=30	=30	=30	=30	=30	=30	=30	=30	=30	=30
2B-^\	4r	.	2b-/	bien	.	2b-/	bien	.	2dd\	bien	.
.	4b-\ 4dd	.	.	.	.	.	.	.	.	.	.
2F^\	4r	.	2f/	gui-	.	2a/	gui-	.	2cc\	gui-	.
.	4a\ 4cc	.	.	.	.	.	.	.	.	.	.
=31	=31	=31	=31	=31	=31	=31	=31	=31	=31	=31	=31
2.BB-/	(4b-/ 4dd	>	2.B-^/	-de	.	(4b-/	-de	.	(4dd\	-de	.
.	4a/ 4cc	.	.	.	.	4a/)	.	.	4cc\)	.	.
.	4g/ 4b-	.	.	.	.	(4g/	nos	.	(4b-\	nos	.
4BBn/	4f/ 4a	]]	4Bn/	nos	.	4f/)	.	.	4a/)	.	.
=32	=32	=32	=32	=32	=32	=32	=32	=32	=32	=32	=32
2C/	4e/) 4g	.	2c/	coeurs	.	2e/	coeurs	.	2g/	coeurs	.
.	4c/	.	.	.	.	.	.	.	.	.	.
4G\	4cc\	.	2r	.	.	2r	.	.	2r	.	.
4E\	4c/	.	.	.	.	.	.	.	.	.	.
=33!|:	=33!|:	=33!|:	=33!|:	=33!|:	=33!|:	=33!|:	=33!|:	=33!|:	=33!|:	=33!|:	=33!|:
!	!	!	!	!	!	!	!	!LO:DY:a	!	!	!LO:DY:a
2C/	4e/ 4g	p	1r	.	.	2e/	et	p	2g/	et	p
.	4c/	.	.	.	.	.	.	.	.	.	.
4G\	4e/	.	.	.	.	2e/	dans	.	2g/	dans	.
4E\	4g/	.	.	.	.	.	.	.	.	.	.
!LO:LB:g=original	!LO:LB:g=original	!	!LO:LB:g=original	!	!	!LO:LB:g=original	!	!	!LO:LB:g=original	!	!
=34	=34	=34	=34	=34	=34	=34	=34	=34	=34	=34	=34
2C/	4b-/	.	4r	.	.	2g/	la	.	2b-/	la	.
!	!	!	!	!	!LO:DY:a	!	!	!	!	!	!
.	4g/	.	4c/	Et	p	.	.	.	.	.	.
4G\	4e/	.	4c/	dans	.	2e/	vie	.	2g/	vie	.
4E\	4c/	.	4c/	la	.	.	.	.	.	.	.
=35	=35	=35	=35	=35	=35	=35	=35	=35	=35	=35	=35
!	!	!	!	!	!LO:DY:a	!	!	!LO:DY:a	!	!	!LO:DY:a
2F\	4f/ 4a	<	(4f/	vie	<	(4f/	é-	<	(4a/	é-	<
.	4e/ 4g	.	4c/)	.	.	4e/)	.	.	4g/)	.	.
2FF/	4f/ 4a	.	4f/	é-	.	(4f/	-ter-	.	(4a/	-ter-	.
.	4g/ 4b-	[[	4f/	-ter-	[[	4g/)	.	[[	4b-/)	.	[[
=36	=36	=36	=36	=36	=36	=36	=36	=36	=36	=36	=36
2BB-/	4b-\ 4dd	>	2f^>/	-nel-	.	2b-^>/	-nel-	.	2dd^\	-nel-	.
.	4f/	.	.	.	.	.	.	.	.	.	.
2F\	4a/ 4cc	.	2f/	-le	.	2a/	-le	.	2cc\	-le	.
.	4f/	]]	.	.	.	.	.	.	.	.	.
=37	=37	=37	=37	=37	=37	=37	=37	=37	=37	=37	=37
!	!	!	!	!	!LO:DY:a	!	!	!LO:DY:a	!	!	!LO:DY:a
2FF/ 2F	4a\ 4ff	.	2f/	re-	f	2a/	re-	f	2ff\	re-	f
.	4f/	.	.	.	.	.	.	.	.	.	.
2AA\ 2A	4cc\ 4ee	.	2f/	-cois	.	2cc\	-cois	.	2ee\	-cois	.
.	4f/	.	.	.	.	.	.	.	.	.	.
=38	=38	=38	=38	=38	=38	=38	=38	=38	=38	=38	=38
2BB-\ 2B-	4b-\ 4dd	.	2f/	nous	.	2b-/	nous	.	2dd\	nous	.
.	4f/	.	.	.	.	.	.	.	.	.	.
4F\	4a/ 4cc	.	2f/	du	.	2a/	du	.	2cc\	du	.
4r	4f/	.	.	.	.	.	.	.	.	.	.
!LO:LB:g=original	!LO:LB:g=original	!	!LO:LB:g=original	!	!	!LO:LB:g=original	!	!	!LO:LB:g=original	!	!
=39	=39	=39	=39	=39	=39	=39	=39	=39	=39	=39	=39
*^	*	*	*	*	*	*	*	*	*	*	*
!LO:TX:a:i:t=rall.	!	!	!	!	!	!	!	!	!	!	!	!
2B-/	2BB-\	(4b-/ 4dd	.	2B-/	mal	.	(4b-/	mal	.	(4dd\	mal	.
.	.	4g/ 4b-	.	.	.	.	4a/)	.	.	4cc\)	.	.
!	!	!	!	!LO:TX:a:i:t=rall.	!	!	!LO:TX:a:i:t=rall.	!	!	!LO:TX:a:i:t=rall.	!	!
4c/	2C\	4f/ 4a	.	2c/	vain-	.	(4f/	vain-	.	(4a/	vain-	.
4B-/	.	4e/) 4g	.	.	.	.	4e/)	.	.	4g/)	.	.
*v	*v	*	*	*	*	*	*	*	*	*	*	*
=40	=40	=40	=40	=40	=40	=40	=40	=40	=40	=40	=40
2F\ 2A	2f/	<	2f/	-queurs	.	2f/	-queurs	.	2f/	-queurs	.
2r	4a/	.	2r	.	.	2r	.	.	2r	.	.
.	4cc\	[[	.	.	.	.	.	.	.	.	.
=41:|!	=41:|!	=41:|!	=41:|!	=41:|!	=41:|!	=41:|!	=41:|!	=41:|!	=41:|!	=41:|!	=41:|!
4FF\ 4F	4f\ 4a 4ff	f	1r	.	.	1r	.	.	1r	.	.
4AA\ 4A	4f\ 4cc 4ee	.	.	.	.	.	.	.	.	.	.
4BB-\ 4B-	4f\ 4b- 4dd	.	.	.	.	.	.	.	.	.	.
4GG\ 4G	4g\ 4b- 4gg	.	.	.	.	.	.	.	.	.	.
=42	=42	=42	=42	=42	=42	=42	=42	=42	=42	=42	=42
4C\ 4c	4a\ 4cc 4ff	.	1r	.	.	1r	.	.	1r	.	.
4C\ 4c	4a-X\ 4bn 4ff	.	.	.	.	.	.	.	.	.	.
4C\ 4c	4g\ 4b-X 4ff	.	.	.	.	.	.	.	.	.	.
4C\ 4c	4g\ 4b- 4ee	.	.	.	.	.	.	.	.	.	.
=43	=43	=43	=43	=43	=43	=43	=43	=43	=43	=43	=43
2A\ 2c	2a\ 2ff	.	1r	.	.	1r	.	.	1r	.	.
2FF/ 2F	2cc\ 2aa	.	.	.	.	.	.	.	.	.	.
=44	=44	=44	=44	=44	=44	=44	=44	=44	=44	=44	=44
2FF/ 2F	2a\ 2ff	.	1r	.	.	1r	.	.	1r	.	.
2r	2r	.	.	.	.	.	.	.	.	.	.
!LO:LB:g=original	!LO:LB:g=original	!	!LO:LB:g=original	!	!	!LO:LB:g=original	!	!	!LO:LB:g=original	!	!
==45	==45	==45	==45	==45	==45	==45	==45	==45	==45	==45	==45
!	!	!	!	!	!	!	!	!	!LO:TX:a:t=3.e STROPHE.	!	!LO:DY:a
2FF/	4a/ 4cc	fp	2.f/	La	.	2.a/	La	.	2.cc\	La	f
.	4c/	.	.	.	.	.	.	.	.	.	.
2F\	4a/ 4cc	.	.	.	.	.	.	.	.	.	.
.	4g/ 4b-	.	4f/	Po-	.	4g/	Po-	.	4b-\	Po-	.
=46	=46	=46	=46	=46	=46	=46	=46	=46	=46	=46	=46
2FF/	4f/ 4a	.	2f/	-lo-	.	2f/	-lo-	.	2a/	-lo-	.
.	4c/	.	.	.	.	.	.	.	.	.	.
2F\	4f/ 4a	.	2f/	-gne	.	2f/	-gne	.	2a/	-gne	.
.	4c/	.	.	.	.	.	.	.	.	.	.
=47	=47	=47	=47	=47	=47	=47	=47	=47	=47	=47	=47
2FF/	4f/ 4a	.	2f/	te	.	2f/	te	.	(4a/	te	.
.	4e/ 4g	.	.	.	.	.	.	.	4g/)	.	.
4F\	4f/ 4a	.	2f/	ré-	.	2f/	ré-	.	(4a/	ré-	.
4C/	4g/ 4b-	.	.	.	.	.	.	.	4b-/)	.	.
=48	=48	=48	=48	=48	=48	=48	=48	=48	=48	=48	=48
!	!	!	!	!	!	!	!	!	!	!	!LO:DY:a
2F\	4b-/ 4dd	.	2f/	-vè-	.	2f/	-vè-	.	2dd\	-vè-	>
.	4f/	.	.	.	.	.	.	.	.	.	.
2FF/	4a/ 4cc	.	2f/	-re	.	2f/	-re	.	2cc\	-re	]]
.	4f/	.	.	.	.	.	.	.	.	.	.
=49	=49	=49	=49	=49	=49	=49	=49	=49	=49	=49	=49
2D\	4a\ 4ff	f	2d^>/	saint	.	2d/	saint	.	2ff\	saint	.
.	4f/	.	.	.	.	.	.	.	.	.	.
2A^\	4r	.	2a/	mo	.	2a/	mo-	.	2ee\	mo-	.
.	4cc\ 4ee	.	.	.	.	.	.	.	.	.	.
!LO:LB:g=original	!LO:LB:g=original	!	!LO:LB:g=original	!	!	!LO:LB:g=original	!	!	!LO:LB:g=original	!	!
=50	=50	=50	=50	=50	=50	=50	=50	=50	=50	=50	=50
2B-^\	4r	.	2b-/	-dè-	.	2b-/	-dè-	.	2dd\	-dè-	.
.	4b-/ 4dd	.	.	.	.	.	.	.	.	.	.
2F^\	4r	.	2f/	-le	.	2a/	-le	.	2cc\	-le	.
.	4a/ 4cc	.	.	.	.	.	.	.	.	.	.
=51	=51	=51	=51	=51	=51	=51	=51	=51	=51	=51	=51
2.BB-^>/	4b-\ 4dd	>	2B-^>/	de	.	(4b-/	de	.	(4dd\	de	.
.	4a/ 4cc	.	.	.	.	4a/)	.	.	4cc\)	.	.
.	4g/ 4b-	.	(4B-/	la	.	(4g/	la	.	(4b-/	la	.
4BBn/	4f/ 4a	]]	4Bn/)	.	.	4f/)	.	.	4a/)	.	.
=52	=52	=52	=52	=52	=52	=52	=52	=52	=52	=52	=52
!	!	!	!	!	!LO:DY:a	!	!	!LO:DY:a	!	!	!LO:DY:a
2C/	4e/ 4g	.	2c/	foi	p	2e/	foi	p	2g/	foi	p
.	4c/	.	.	.	.	.	.	.	.	.	.
4G\	4cc\	.	2r	.	.	2r	.	.	2r	.	.
4E\	4c/	.	.	.	.	.	.	.	.	.	.
=53!|:	=53!|:	=53!|:	=53!|:	=53!|:	=53!|:	=53!|:	=53!|:	=53!|:	=53!|:	=53!|:	=53!|:
!	!	!	!	!	!	!	!	!LO:DY:a	!	!	!LO:DY:a
2C/	4e/ 4g	p	1r	.	.	2e/	Et	f	2g/	Et	f
.	4c/	.	.	.	.	.	.	.	.	.	.
4G\	4e/	.	.	.	.	2e/	t`im-	.	2g/	t`im-	.
4E\	4g/	.	.	.	.	.	.	.	.	.	.
=54	=54	=54	=54	=54	=54	=54	=54	=54	=54	=54	=54
2C/	4b-/	.	2r	.	.	2g/	-plore	.	2b-/	-plore	.
.	4g/	.	.	.	.	.	.	.	.	.	.
4G\	4e/	.	4c/	Et	.	2e/	en	.	2g/	en	.
4E\	4c/	.	4c/	t`im-	.	.	.	.	.	.	.
=55	=55	=55	=55	=55	=55	=55	=55	=55	=55	=55	=55
2F\	4f/ 4a	<	4f/	-plore	.	(4f/	sa	.	(4a/	sa	.
.	4e/ 4g	.	4c/	en	.	4e/)	.	.	4g/)	.	.
2FF/	4f/ 4a	.	4f/	sa	.	(4f/	pri-	.	(4a/	pri-	.
.	4g/ 4b-	[[	4f/	pri-	.	4g/)	.	.	4b-/)	.	.
!LO:LB:g=original	!LO:LB:g=original	!	!LO:LB:g=original	!	!	!LO:LB:g=original	!	!	!LO:LB:g=original	!	!
=56	=56	=56	=56	=56	=56	=56	=56	=56	=56	=56	=56
!	!	!	!	!	!LO:DY:a	!	!	!LO:DY:a	!	!	!LO:DY:a
2BB-/	4b-\ 4dd	>	2f/	-è-	>	2b-/	-è-	>	2dd\	-è-	>
.	4f/	.	.	.	.	.	.	.	.	.	.
2F\	4a/ 4cc	.	2f/	-re	]]	2a/	-re	]]	2cc\	-re	]]
.	4f/	]]	.	.	.	.	.	.	.	.	.
=57	=57	=57	=57	=57	=57	=57	=57	=57	=57	=57	=57
!	!	!	!	!	!LO:DY:a	!	!	!LO:DY:a	!	!	!LO:DY:a
2DD/ 2D	4a\ 4ff	f	2d/	Ka-	f	2a/	Ka-	f	2ff\	Ka-	f
.	4f/	.	.	.	.	.	.	.	.	.	.
2AA\ 2A	4cc\ 4ee	.	2a/	-si-	.	2cc\	-si-	.	2ee\	-si-	.
.	4e/	.	.	.	.	.	.	.	.	.	.
=58	=58	=58	=58	=58	=58	=58	=58	=58	=58	=58	=58
2BB-\ 2B-	4b-\ 4dd	.	2b-/	-mir	.	2b-/	-mir	.	2dd\	-mir	.
.	4d/	.	.	.	.	.	.	.	.	.	.
2F\	4a/ 4cc	.	2f/	en-	.	2a/	en-	.	2cc\	en-	.
.	4f/	.	.	.	.	.	.	.	.	.	.
=59	=59	=59	=59	=59	=59	=59	=59	=59	=59	=59	=59
*^	*	*	*	*	*	*	*	*	*	*	*
2B-/	2BB-\	(4b-/ 4dd	.	2B-^>/	-tends	.	(4b-/	-tends	.	(4dd\	-tends	.
.	.	4g/ 4b-	.	.	.	.	4g/)	.	.	4b-\)	.	.
!	!	!LO:TX:a:i:t=rall.	!	!LO:TX:a:i:t=rall.	!	!	!LO:TX:a:i:t=rall.	!	!	!LO:TX:a:i:t=rall.	!	!
4c/	2C\	4f/ 4a	.	(4c/	sa	.	(4f/	sa	.	(4a/	sa	.
4B-/	.	4e/) 4g	.	4B-/)	.	.	4e/)	.	.	4g/)	.	.
*v	*v	*	*	*	*	*	*	*	*	*	*	*
=60	=60	=60	=60	=60	=60	=60	=60	=60	=60	=60	=60
!	!	!	!	!	!LO:DY:a	!	!	!LO:DY:a	!	!	!LO:DY:a
2F;<\ 2A	2f;/	.	2A;/	voix	p	2f;/	voix	p	2f;/	voix	p
2r	2r	.	2r	.	.	2r	.	.	2r	.	.
=:|!	=:|!	=:|!	=:|!	=:|!	=:|!	=:|!	=:|!	=:|!	=:|!	=:|!	=:|!
*-	*-	*-	*-	*-	*-	*-	*-	*-	*-	*-	*-
!!!RDF**kern: > = above
!!!RDF**kern: < = below
!!!system-decoration: [(s1,s2,s3)][(s4,s5)]
!!!ENC: Filip Voros
!!!END: 2022-08-11
!!!ENC: Julita Ruszuk
!!!END: 2022-09-13
!!!YEC: Copyright 2022 Narodowy Instytut Fryderyka Chopina (https://polishscores.org)
!!!YEM: License CC-BY-4.0 (https://creativecommons.org/licenses/by/4.0)
